X: 4549
T: Boston Hop, The
R: polka
M: 2/4
K: Dmajor
|:e|ae/g/ fd|ae/g/ fd|eA ce|de fg|
ae/g/ fd|ae/g/ fd|eA ce|df d:|
|:z|DA/A/ Fd/d/|Af/f/ db/b/|ag ec|de fd|
DA/A/ Fd/d/|Af/f/ db/b/|ag ec|df d:|
|:z|ec/B/ AB|cd ef|gf/e/ dD|FA df|
ec/B/ AB|cd ef/g/|aa/A/ B/B/c|df d:|

